Obsidian-SemiLight/actions/16s/code-block.svg

<svg viewBox="0 0 16 16" xmlns="http://www.w3.org/2000/svg"><path d="m5 2v5h5v-5zm-3 7v5h5v-5zm7 0v5h5v-5z" fill="#4d4d4d"/></svg>

<svg xmlns="http://www.w3.org/2000/svg" viewBox="0 0 16 16">
  <defs id="defs3051">
    <style type="text/css" id="current-color-scheme">
      .ColorScheme-Text {
        color:#4d4d4d;
      }
      </style>
  </defs>
 <path style="fill:currentColor;fill-opacity:1;stroke:none" 
     d="M 5 2 L 5 7 L 10 7 L 10 2 L 5 2 z M 2 9 L 2 14 L 7 14 L 7 9 L 2 9 z M 9 9 L 9 14 L 14 14 L 14 9 L 9 9 z "
     class="ColorScheme-Text"
     />
</svg>
